X:151
M:4/4
L:1/8
K:D
ag | fAfe d2A2 | BGdB A2de | fdda gfed | f2e2 e2ag | 
fAfe d2A2 | BGdB A2de | faga gecA | d4 d2 :| 
fg | adfa f2ed | BGdB A2fg | adfa gfed | f2e2 e2fg | 
adfa f2ed | BGdB A2de | faga gecA | d4 d2 :| 
d2e2 f2ed | BGdB A2de | faga gecA | d4 d2 :|| 

